; HEADER_BLOCK_START
; generated by OrcaSlicer 2.3.0-beta2 on 2025-03-10 at 16:14:44
; total layer number: 125
;_GP_TOTAL_LAYER_NUMBER_PLACEHOLDER
; filament_density: 1.24
; filament_diameter: 1.75
; max_z_height: 25.00
; HEADER_BLOCK_END

; THUMBNAIL_BLOCK_START

;
; THUMBNAIL_BLOCK_END







; external perimeters extrusion width = 0.40mm
; perimeters extrusion width = 0.45mm
; infill extrusion width = 0.45mm
; solid infill extrusion width = 0.45mm
; top infill extrusion width = 0.38mm
; support material extrusion width = 0.38mm
; first layer extrusion width = 0.42mm

; external perimeters extrusion width = 0.40mm
; perimeters extrusion width = 0.45mm
; infill extrusion width = 0.45mm
; solid infill extrusion width = 0.45mm
; top infill extrusion width = 0.38mm
; support material extrusion width = 0.38mm
; first layer extrusion width = 0.42mm

; EXECUTABLE_BLOCK_START
EXCLUDE_OBJECT_DEFINE NAME=case_bottom_01.stl_id_0_copy_0 CENTER=168.532,68.2653 POLYGON=[[126.532,32.7653],[126.534,32.6781],[126.539,32.6112],[126.54,32.591],[126.549,32.5043],[126.563,32.418],[126.573,32.3674],[126.58,32.3325],[126.601,32.2477],[126.625,32.1639],[126.636,32.1311],[126.653,32.0813],[126.685,32],[126.72,31.9201],[126.726,31.9065],[126.739,31.8808],[126.758,31.8418],[126.779,31.8034],[126.8,31.7653],[126.823,31.7278],[126.846,31.6907],[126.869,31.6542],[126.894,31.6182],[126.919,31.5827],[126.946,31.5478],[126.973,31.5135],[127,31.4798],[127.029,31.4466],[127.058,31.4142],[127.088,31.3823],[127.118,31.3511],[127.149,31.3206],[127.181,31.2908],[127.214,31.2617],[127.247,31.2332],[127.281,31.2056],[127.315,31.1786],[127.35,31.1524],[127.374,31.135],[127.385,31.127],[127.421,31.1024],[127.458,31.0786],[127.495,31.0555],[127.532,31.0333],[127.539,31.0294],[127.57,31.0119],[127.609,30.9913],[127.648,30.9716],[127.687,30.9527],[127.727,30.9347],[127.767,30.9176],[127.807,30.9013],[127.848,30.886],[127.889,30.8715],[127.931,30.8579],[127.973,30.8452],[127.998,30.8381],[128.015,30.8335],[128.057,30.8227],[128.099,30.8127],[128.142,30.8038],[128.185,30.7957],[128.228,30.7886],[128.271,30.7824],[128.315,30.7772],[128.358,30.7729],[128.402,30.7696],[128.445,30.7672],[128.489,30.7658],[128.532,30.7653],[208.532,30.7653],[208.62,30.7672],[208.686,30.7715],[208.707,30.7729],[208.793,30.7824],[208.88,30.7957],[208.93,30.8055],[208.965,30.8127],[209.05,30.8335],[209.134,30.8579],[209.167,30.8687],[209.216,30.886],[209.298,30.9176],[209.378,30.9527],[209.391,30.9591],[209.417,30.9716],[209.456,30.9913],[209.494,31.0119],[209.532,31.0333],[209.57,31.0555],[209.607,31.0786],[209.644,31.1024],[209.68,31.127],[209.715,31.1524],[209.75,31.1786],[209.784,31.2056],[209.818,31.2332],[209.851,31.2617],[209.884,31.2908],[209.915,31.3206],[209.947,31.3511],[209.977,31.3823],[210.007,31.4142],[210.036,31.4466],[210.064,31.4798],[210.092,31.5135],[210.119,31.5478],[210.145,31.5827],[210.163,31.6069],[210.171,31.6182],[210.195,31.6542],[210.219,31.6907],[210.242,31.7278],[210.264,31.7653],[210.268,31.7722],[210.286,31.8034],[210.306,31.8418],[210.326,31.8808],[210.345,31.9201],[210.363,31.9598],[210.38,32],[210.396,32.0405],[210.412,32.0813],[210.426,32.1225],[210.44,32.1639],[210.452,32.2057],[210.46,32.2309],[210.464,32.2477],[210.475,32.29],[210.485,32.3325],[210.494,32.3752],[210.502,32.418],[210.509,32.4611],[210.515,32.5043],[210.52,32.5476],[210.525,32.591],[210.528,32.6345],[210.53,32.6781],[210.532,32.7217],[210.532,32.7653],[210.532,103.765],[210.53,103.853],[210.526,103.919],[210.525,103.94],[210.515,104.026],[210.502,104.113],[210.492,104.163],[210.485,104.198],[210.464,104.283],[210.44,104.367],[210.429,104.4],[210.412,104.449],[210.38,104.531],[210.345,104.611],[210.339,104.624],[210.326,104.65],[210.306,104.689],[210.286,104.727],[210.264,104.765],[210.242,104.803],[210.219,104.84],[210.195,104.876],[210.171,104.912],[210.145,104.948],[210.119,104.983],[210.092,105.017],[210.064,105.051],[210.036,105.084],[210.007,105.117],[209.977,105.148],[209.947,105.18],[209.915,105.21],[209.884,105.24],[209.851,105.269],[209.818,105.297],[209.784,105.325],[209.75,105.352],[209.715,105.378],[209.691,105.396],[209.68,105.404],[209.644,105.428],[209.607,105.452],[209.57,105.475],[209.532,105.497],[209.526,105.501],[209.494,105.519],[209.456,105.539],[209.417,105.559],[209.378,105.578],[209.338,105.596],[209.298,105.613],[209.257,105.629],[209.216,105.645],[209.175,105.659],[209.134,105.673],[209.092,105.685],[209.067,105.693],[209.05,105.697],[209.008,105.708],[208.965,105.718],[208.923,105.727],[208.88,105.735],[208.837,105.742],[208.793,105.748],[208.75,105.753],[208.707,105.758],[208.663,105.761],[208.62,105.763],[208.576,105.765],[208.532,105.765],[128.532,105.765],[128.489,105.765],[128.445,105.763],[128.402,105.761],[128.358,105.758],[128.315,105.753],[128.271,105.748],[128.228,105.742],[128.185,105.735],[128.142,105.727],[128.099,105.718],[128.057,105.708],[128.015,105.697],[127.998,105.693],[127.973,105.685],[127.931,105.673],[127.889,105.659],[127.848,105.645],[127.807,105.629],[127.767,105.613],[127.727,105.596],[127.687,105.578],[127.648,105.559],[127.609,105.539],[127.57,105.519],[127.539,105.501],[127.532,105.497],[127.495,105.475],[127.458,105.452],[127.421,105.428],[127.385,105.404],[127.35,105.378],[127.315,105.352],[127.281,105.325],[127.247,105.297],[127.214,105.269],[127.181,105.24],[127.149,105.21],[127.118,105.18],[127.088,105.148],[127.058,105.117],[127.029,105.084],[127,105.051],[126.973,105.017],[126.946,104.983],[126.919,104.948],[126.894,104.912],[126.869,104.876],[126.846,104.84],[126.823,104.803],[126.8,104.765],[126.779,104.727],[126.758,104.689],[126.739,104.65],[126.726,104.624],[126.72,104.611],[126.685,104.531],[126.653,104.449],[126.636,104.4],[126.625,104.367],[126.601,104.283],[126.58,104.198],[126.573,104.163],[126.563,104.113],[126.549,104.026],[126.54,103.94],[126.539,103.919],[126.534,103.853],[126.532,103.765],[126.532,32.7653]]
EXCLUDE_OBJECT_DEFINE NAME=keypad_holder_02.stl_id_1_copy_0 CENTER=56.4982,73.4249 POLYGON=[[16.4982,37.9249],[96.4982,37.9249],[96.4982,108.925],[16.4982,108.925],[16.4982,37.9249]]
M73 P0 R105
;TYPE:Custom
;ELEGOO NEPTUNE 4 PRO
M220 S100 ;Set the feed speed to 100%
M221 S100 ;Set the flow rate to 100%
M104 S140
M190 S55
G90
G28 ;home
G1 Z10 F300
G1 X67.5 Y0 F6000
G1 Z0 F300
M109 S220
G92 E0 ;Reset Extruder
G1 X67.5 Y0 Z0.4 F300 ;Move to start position
G1 X167.5 E30 F400 ;Draw the first line
G1 Z0.6 F120.0 ;Move to side a little
M73 P0 R104
G1 X162.5 F3000
G92 E0 ;Reset Extruder
G90
G21
M83 ; use relative distances for extrusion
; Filament gcode
M106 S0
;LAYER_CHANGE
;Z:0.2
;HEIGHT:0.2
;BEFORE_LAYER_CHANGE
G92 E0
;0.2


G1 E-.8 F3600
;AFTER_LAYER_CHANGE
;0.2
;_SET_FAN_SPEED_CHANGING_LAYER
SET_VELOCITY_LIMIT ACCEL=1000 ACCEL_TO_DECEL=500
SET_VELOCITY_LIMIT SQUARE_CORNER_VELOCITY=7
G1 X40.627 Y35.397 F21000
G1 Z.6
G1 Z.2
G1 E.8 F2700
;TYPE:Skirt
;WIDTH:0.42
G1 F3000
G1 X128.467 Y30.526 E2.70322
G1 X208.599 Y30.526 E2.46225
G1 X209.4 Y30.699 E.02519
G1 X210.117 Y31.181 E.02652
G1 X210.615 Y31.938 E.02785
G1 X210.774 Y32.765 E.02589
G1 X210.774 Y103.807 E2.18292
G1 X210.671 Y104.433 E.01947
G1 X210.389 Y105.019 E.02
G1 X209.895 Y105.544 E.02216
G1 X209.357 Y105.849 E.01898
G1 X208.576 Y106.006 E.02449
G1 X96.542 Y110.113 E3.44481
G1 X16.498 Y110.113 E2.45951
G1 X15.624 Y109.73 E.02933
G1 X15.31 Y108.925 E.02657
G1 X15.31 Y37.925 E2.18163
G1 X15.693 Y37.051 E.02933
G1 X16.432 Y36.738 E.02467
G1 X40.587 Y35.399 E.74334
; printing object case_bottom_01.stl id:0 copy 0
G1 E-.68 F3600
;WIPE_START
G1 F3000
G1 X41.585 Y35.343 E-.12
;WIPE_END
EXCLUDE_OBJECT_START NAME=case_bottom_01.stl_id_0_copy_0
G1 X48.713 Y38.074 Z.6 F21000
G1 X123.093 Y66.564 Z.6
G1 Z.2
G1 E.8 F2700
;TYPE:Support
G1 F3000
G1 X123.66 Y66.58 E.01743
G1 X124.608 Y66.784 E.02978
G1 X125.502 Y67.155 E.02974
G1 X126.316 Y67.682 E.02978
G1 X127.022 Y68.346 E.02981
G1 X127.498 Y68.993 E.02469
G1 X127.498 Y74.818 E.17896
G1 X127.022 Y75.465 E.02469
G1 X126.316 Y76.13 E.02981
G1 X125.502 Y76.656 E.02978
G1 X124.608 Y77.027 E.02974
G1 X123.663 Y77.231 E.0297
G1 X122.698 Y77.261 E.02965
G1 X121.746 Y77.117 E.02958
G1 X120.838 Y76.806 E.0295
G1 X119.956 Y76.312 E.03106
G1 X117.283 Y73.827 E.11215
G1 X118.409 Y73.371 E.03731
G1 X118.314 Y73.015 E.01132
G1 X118.233 Y72.56 E.01421
G1 X118.198 Y72.154 E.01251
G1 X118.198 Y71.657 E.0153
G1 X118.233 Y71.251 E.01251
G1 X118.32 Y70.765 E.01517
G1 X118.417 Y70.446 E.01026
G1 X117.28 Y69.988 E.03765
G1 X119.956 Y67.499 E.11229
G1 X120.838 Y67.005 E.03106
G1 X121.746 Y66.694 E.0295
G1 X122.703 Y66.55 E.02973
G1 X123.037 Y66.562 E.01026
G1 X127.054 Y75.135 F21000
G1 F3000
G1 X127.054 Y68.962 E.1897
G1 X126.767 Y68.572 E.01486
G1 X126.635 Y68.448 E.00558
G1 X126.635 Y75.363 E.21249
G1 X126.216 Y75.758 E.01768
G1 X126.216 Y68.054 E.23673
G1 X126.105 Y67.95 E.00465
G1 X125.797 Y67.75 E.0113
G1 X125.797 Y76.061 E.25538
G1 X125.378 Y76.332 E.01533
G1 X125.378 Y67.479 E.27203
G1 X125.343 Y67.457 E.00126
G1 X124.959 Y67.297 E.01279
G1 X124.959 Y76.514 E.2832
G1 X124.54 Y76.688 E.01394
G1 X124.54 Y67.123 E.29388
G1 X124.506 Y67.11 E.00112
G1 X124.121 Y67.026 E.01211
G1 X124.121 Y76.785 E.29984
G1 X123.702 Y76.875 E.01317
G1 X123.702 Y66.936 E.30539
G1 X123.619 Y66.918 E.00259
G1 X123.283 Y66.909 E.01034
G1 X123.283 Y76.903 E.30709
G1 X122.864 Y76.916 E.01288
G1 X122.864 Y66.895 E.30792
G1 X122.722 Y66.89 E.00435
G1 X122.445 Y66.932 E.00862
G1 X122.445 Y76.879 E.30566
G1 X122.026 Y76.816 E.01302
G1 X122.026 Y66.995 E.30179
G1 X121.827 Y67.025 E.00617
G1 X121.607 Y67.1 E.00716
G1 X121.607 Y76.711 E.29531
G1 X121.188 Y76.567 E.01361
G1 X121.188 Y67.244 E.28649
G1 X120.977 Y67.316 E.00685
G1 X120.769 Y67.433 E.00733
G1 X120.769 Y76.379 E.27489
G1 X120.35 Y76.144 E.01475
G1 X120.35 Y67.667 E.26047
G1 X120.157 Y67.775 E.00678
G1 X119.931 Y67.985 E.0095
G1 X119.931 Y75.826 E.24091
G1 X119.512 Y75.436 E.01758
G1 X119.512 Y68.375 E.21696
G1 X119.093 Y68.765 E.01758
G1 X119.093 Y75.046 E.19302
G1 X118.674 Y74.657 E.01758
G1 X118.674 Y69.155 E.16907
G1 X118.255 Y69.544 E.01758
G1 X118.255 Y70.198 E.02007
G1 X118.255 Y74.499 F21000
G1 F3000
G1 X118.255 Y73.617 E.0271
G1 E-.68 F3600
;WIPE_START
G1 F3000
G1 X118.255 Y74.499 E-.12
;WIPE_END
G1 X120.173 Y67.111 Z.6 F21000
G1 X128.972 Y33.206 Z.6
G1 Z.2
G1 E.8 F2700
;TYPE:Inner wall
;WIDTH:0.419999
G1 F3000
G1 X208.092 Y33.207 E2.43111
G1 X208.092 Y103.324 E2.1545
G1 X128.972 Y103.324 E2.43113
G1 X128.972 Y33.246 E2.15331
G1 X128.623 Y32.829 F21000
G1 F3000
G1 X208.469 Y32.83 E2.45344
G1 X208.469 Y103.702 E2.17767
G1 X128.595 Y103.702 E2.4543
G1 X128.595 Y32.858 E2.17683
G1 X128.56 Y32.452 F21000
;TYPE:Outer wall
G1 F3000
G1 X208.455 Y32.453 E2.45496
G1 X208.724 Y32.527 E.00856
G1 X208.814 Y32.64 E.00444
G1 X208.846 Y32.829 E.00589
G1 X208.846 Y103.827 E2.18154
G1 X208.725 Y103.998 E.00647
G1 X208.505 Y104.079 E.00718
G1 X128.616 Y104.079 E2.45477
G1 X128.376 Y104.027 E.00755
G1 X128.254 Y103.897 E.00547
G1 X128.218 Y103.739 E.00497
G1 X128.218 Y32.856 E2.17802
G1 X128.277 Y32.598 E.00816
G1 X128.396 Y32.491 E.00489
G1 X128.521 Y32.461 E.00395
G1 E-.68 F3600
;WIPE_START
G1 F3000
G1 X129.521 Y32.461 E-.12
;WIPE_END
G1 X137.111 Y33.262 Z.6 F21000
G1 X199.223 Y39.812 Z.6
G1 Z.2
G1 E.8 F2700
;TYPE:Inner wall
G1 F3000
G1 X199.319 Y39.914 E.00432
G1 X199.613 Y40.4 E.01744
G1 X199.8 Y40.969 E.01841
G1 X199.831 Y41.543 E.01764
G1 X199.707 Y42.133 E.01855
G1 X199.469 Y42.645 E.01734
G1 X199.146 Y43.05 E.01593
G1 X198.743 Y43.375 E.01591
G1 X198.286 Y43.605 E.01571
G1 X197.758 Y43.732 E.01668
G1 X197.23 Y43.737 E.01623
G1 X196.718 Y43.625 E.01611
G1 X196.205 Y43.372 E.01757
G1 X195.762 Y43.013 E.01754
G1 X195.447 Y42.599 E.01595
G1 X195.224 Y42.115 E.01639
G1 X195.12 Y41.617 E.01565
G1 X195.131 Y41.064 E.017
G1 X195.28 Y40.52 E.01732
G1 X195.547 Y40.018 E.01746
G1 X195.893 Y39.631 E.01595
G1 X196.313 Y39.329 E.0159
G1 X196.867 Y39.103 E.01838
G1 X197.353 Y39.026 E.0151
G1 X197.771 Y39.043 E.01286
G1 X198.249 Y39.154 E.0151
G1 X198.63 Y39.328 E.01285
G1 X199.032 Y39.611 E.0151
G1 X199.195 Y39.783 E.00731
G1 X198.948 Y40.066 F21000
G1 F3000
G1 X199.009 Y40.129 E.00272
G1 X199.256 Y40.523 E.01427
G1 X199.43 Y41.042 E.01682
G1 X199.449 Y41.561 E.01596
G1 X199.339 Y42.05 E.0154
G1 X199.105 Y42.519 E.0161
G1 X198.77 Y42.887 E.01528
G1 X198.426 Y43.127 E.01289
G1 X198.109 Y43.265 E.01062
G1 X197.683 Y43.359 E.01341
G1 X197.247 Y43.357 E.01341
G1 X196.795 Y43.247 E.0143
G1 X196.328 Y43.009 E.0161
G1 X195.953 Y42.666 E.01561
G1 X195.704 Y42.289 E.01389
G1 X195.575 Y41.969 E.0106
G1 X195.494 Y41.542 E.01336
G1 X195.515 Y41.075 E.01436
G1 X195.668 Y40.553 E.01672
G1 X195.945 Y40.118 E.01585
G1 X196.163 Y39.893 E.00961
G1 X196.616 Y39.594 E.01668
G1 X196.94 Y39.473 E.01062
G1 X197.353 Y39.403 E.01288
G1 X197.698 Y39.413 E.01062
G1 X198.108 Y39.504 E.01288
G1 X198.424 Y39.643 E.01062
G1 X198.769 Y39.881 E.01288
G1 X198.92 Y40.037 E.00667
G1 X198.68 Y40.324 F21000
;TYPE:Outer wall
G1 F3000
G1 X198.7 Y40.344 E.00087
G1 X198.9 Y40.646 E.01112
G1 X199.063 Y41.141 E.01602
G1 X199.076 Y41.505 E.01119
G1 X198.953 Y42.015 E.01613
G1 X198.783 Y42.319 E.01071
G1 X198.547 Y42.583 E.01088
G1 X198.265 Y42.786 E.01067
G1 X198.017 Y42.9 E.00839
G1 X197.673 Y42.982 E.01087
G1 X197.319 Y42.987 E.01088
G1 X196.965 Y42.911 E.01114
G1 X196.513 Y42.679 E.0156
G1 X196.245 Y42.427 E.0113
G1 X196.049 Y42.138 E.01072
G1 X195.943 Y41.887 E.00838
G1 X195.871 Y41.542 E.01083
G1 X195.878 Y41.178 E.01118
G1 X196.027 Y40.678 E.01602
G1 X196.215 Y40.381 E.01083
G1 X196.433 Y40.156 E.00961
G1 X196.758 Y39.943 E.01193
G1 X197.012 Y39.843 E.00839
G1 X197.353 Y39.78 E.01066
G1 X197.626 Y39.783 E.00839
G1 X197.966 Y39.853 E.01066
G1 X198.218 Y39.959 E.00839
G1 X198.506 Y40.152 E.01066
G1 X198.651 Y40.296 E.00629
G1 E-.68 F3600
;WIPE_START
G1 F3000
G1 X198.7 Y40.344 E-.0082
G1 X198.9 Y40.646 E-.04341
G1 X199.063 Y41.141 E-.06258
G1 X199.065 Y41.189 E-.00581
;WIPE_END
G1 X198.848 Y48.819 Z.6 F21000
G1 X198.202 Y71.559 Z.6
G1 Z.2
G1 E.8 F2700
;TYPE:Inner wall
G1 F3000
G1 X198.078 Y71.607 E.00407
G1 X197.572 Y71.684 E.01574
G1 X197.046 Y71.643 E.01622
G1 X196.501 Y71.477 E.01748
G1 X196.046 Y71.211 E.01622
G1 X195.666 Y70.85 E.01611
G1 X195.385 Y70.435 E.01539
G1 X195.208 Y69.993 E.01464
G1 X195.117 Y69.482 E.01594
G1 X195.134 Y68.991 E.01511
G1 X195.231 Y68.583 E.01286
G1 X195.434 Y68.131 E.01523
G1 X195.635 Y67.838 E.01094
G1 X196.019 Y67.462 E.01649
G1 X196.448 Y67.195 E.01554
G1 X196.995 Y67.018 E.01766
G1 X197.557 Y66.966 E.01735
G1 X197.816 Y66.994 E.00799
G1 X198.358 Y67.135 E.01721
G1 X198.89 Y67.433 E.01873
G1 X199.316 Y67.858 E.01849
G1 X199.619 Y68.344 E.0176
G1 X199.782 Y68.835 E.0159
G1 X199.833 Y69.351 E.01595
G1 X199.788 Y69.801 E.01388
G1 X199.561 Y70.426 E.02042
G1 X199.289 Y70.835 E.01511
G1 X198.993 Y71.131 E.01286
G1 X198.562 Y71.42 E.01595
G1 X198.239 Y71.545 E.01064
G1 X198.072 Y71.21 F21000
G1 F3000
G1 X198.006 Y71.237 E.0022
G1 X197.544 Y71.306 E.01434
G1 X197.041 Y71.263 E.01553
G1 X196.559 Y71.09 E.01573
G1 X196.247 Y70.887 E.01144
G1 X195.935 Y70.581 E.0134
G1 X195.705 Y70.231 E.01289
G1 X195.576 Y69.91 E.01062
G1 X195.494 Y69.482 E.01341
G1 X195.504 Y69.063 E.01288
G1 X195.58 Y68.725 E.01063
G1 X195.749 Y68.338 E.01297
G1 X195.923 Y68.082 E.00952
G1 X196.259 Y67.754 E.01442
G1 X196.659 Y67.518 E.01428
G1 X197.159 Y67.364 E.01606
G1 X197.681 Y67.351 E.01606
G1 X198.187 Y67.477 E.01603
G1 X198.659 Y67.732 E.01648
G1 X199.046 Y68.121 E.01685
G1 X199.288 Y68.523 E.01442
G1 X199.439 Y69.06 E.01716
G1 X199.452 Y69.482 E.01295
G1 X199.394 Y69.822 E.0106
G1 X199.24 Y70.228 E.01336
G1 X199.012 Y70.58 E.01289
G1 X198.77 Y70.827 E.01062
G1 X198.41 Y71.075 E.01341
G1 X198.11 Y71.195 E.00997
G1 X197.921 Y70.869 F21000
;TYPE:Outer wall
G1 F3000
G1 X197.575 Y70.93 E.01079
G1 X197.074 Y70.886 E.01545
G1 X196.733 Y70.755 E.01122
G1 X196.502 Y70.609 E.00839
G1 X196.245 Y70.367 E.01087
G1 X196.05 Y70.079 E.01067
G1 X195.944 Y69.828 E.00839
G1 X195.871 Y69.482 E.01087
G1 X195.874 Y69.135 E.01067
