; HEADER_BLOCK_START
; generated by OrcaSlicer 2.3.0-beta2 on 2025-03-11 at 05:20:20
; total layer number: 140
;_GP_TOTAL_LAYER_NUMBER_PLACEHOLDER
; filament_density: 1.24
; filament_diameter: 1.75
; max_z_height: 28.00
; HEADER_BLOCK_END

; THUMBNAIL_BLOCK_START

;
; THUMBNAIL_BLOCK_END







; external perimeters extrusion width = 0.40mm
; perimeters extrusion width = 0.45mm
; infill extrusion width = 0.45mm
; solid infill extrusion width = 0.45mm
; top infill extrusion width = 0.38mm
; support material extrusion width = 0.38mm
; first layer extrusion width = 0.42mm

; EXECUTABLE_BLOCK_START
EXCLUDE_OBJECT_DEFINE NAME=casse_bottom_02.stl_id_0_copy_0 CENTER=117.5,115 POLYGON=[[75.5,76.5002],[75.5019,76.4129],[75.5062,76.3461],[75.5076,76.3259],[75.5171,76.2391],[75.5304,76.1529],[75.5402,76.1023],[75.5474,76.0673],[75.5682,75.9825],[75.5926,75.8988],[75.6034,75.8659],[75.6206,75.8161],[75.6522,75.7348],[75.6874,75.6549],[75.6938,75.6414],[75.7063,75.6156],[75.726,75.5767],[75.7465,75.5382],[75.768,75.5002],[75.7902,75.4626],[75.8132,75.4256],[75.8371,75.389],[75.8617,75.353],[75.8871,75.3176],[75.9133,75.2827],[75.9402,75.2483],[75.9679,75.2146],[75.9963,75.1815],[76.0254,75.149],[76.0553,75.1171],[76.0858,75.086],[76.117,75.0554],[76.1488,75.0256],[76.1813,74.9965],[76.2144,74.9681],[76.2482,74.9404],[76.2825,74.9135],[76.3174,74.8873],[76.3415,74.8699],[76.3528,74.8619],[76.3889,74.8372],[76.4254,74.8134],[76.4625,74.7904],[76.5,74.7681],[76.5068,74.7642],[76.538,74.7467],[76.5765,74.7262],[76.6154,74.7064],[76.6548,74.6876],[76.6945,74.6696],[76.7346,74.6524],[76.7751,74.6362],[76.816,74.6208],[76.8571,74.6063],[76.8986,74.5927],[76.9403,74.5801],[76.9656,74.573],[76.9824,74.5683],[77.0246,74.5575],[77.0671,74.5476],[77.1098,74.5386],[77.1527,74.5306],[77.1958,74.5235],[77.2389,74.5173],[77.2823,74.5121],[77.3257,74.5078],[77.3692,74.5045],[77.4128,74.5021],[77.4564,74.5007],[77.5,74.5002],[157.5,74.5002],[157.587,74.5021],[157.654,74.5064],[157.674,74.5078],[157.761,74.5173],[157.847,74.5306],[157.898,74.5404],[157.933,74.5476],[158.018,74.5683],[158.101,74.5927],[158.134,74.6035],[158.184,74.6208],[158.265,74.6524],[158.345,74.6876],[158.359,74.694],[158.385,74.7064],[158.423,74.7262],[158.462,74.7467],[158.5,74.7681],[158.538,74.7904],[158.575,74.8134],[158.611,74.8372],[158.647,74.8619],[158.683,74.8873],[158.718,74.9135],[158.752,74.9404],[158.786,74.9681],[158.819,74.9965],[158.851,75.0256],[158.883,75.0554],[158.914,75.086],[158.945,75.1171],[158.975,75.149],[159.004,75.1815],[159.032,75.2146],[159.06,75.2483],[159.087,75.2827],[159.113,75.3176],[159.13,75.3417],[159.138,75.353],[159.163,75.389],[159.187,75.4256],[159.21,75.4626],[159.232,75.5002],[159.236,75.507],[159.253,75.5382],[159.274,75.5767],[159.294,75.6156],[159.313,75.6549],[159.331,75.6947],[159.348,75.7348],[159.364,75.7753],[159.379,75.8161],[159.394,75.8573],[159.407,75.8988],[159.42,75.9405],[159.427,75.9657],[159.432,75.9825],[159.443,76.0248],[159.453,76.0673],[159.462,76.11],[159.47,76.1529],[159.477,76.1959],[159.483,76.2391],[159.488,76.2824],[159.492,76.3259],[159.496,76.3694],[159.498,76.4129],[159.5,76.4565],[159.5,76.5002],[159.5,147.5],[159.498,147.587],[159.494,147.654],[159.492,147.674],[159.483,147.761],[159.47,147.847],[159.46,147.898],[159.453,147.933],[159.432,148.018],[159.407,148.102],[159.397,148.134],[159.379,148.184],[159.348,148.266],[159.313,148.345],[159.306,148.359],[159.294,148.385],[159.274,148.424],[159.253,148.462],[159.232,148.5],[159.21,148.538],[159.187,148.575],[159.163,148.611],[159.138,148.647],[154.4,155.5],[143.75,155.5],[91.15,155.5],[80.4,155.5],[75.8371,148.611],[75.8132,148.575],[75.7902,148.538],[75.768,148.5],[75.7465,148.462],[75.726,148.424],[75.7063,148.385],[75.6938,148.359],[75.6874,148.345],[75.6522,148.266],[75.6206,148.184],[75.6034,148.134],[75.5926,148.102],[75.5682,148.018],[75.5474,147.933],[75.5402,147.898],[75.5304,147.847],[75.5171,147.761],[75.5076,147.674],[75.5062,147.654],[75.5019,147.587],[75.5,147.5],[75.5,76.5002]]
M73 P0 R57
;TYPE:Custom
;ELEGOO NEPTUNE 4 PRO
M220 S100 ;Set the feed speed to 100%
M221 S100 ;Set the flow rate to 100%
M104 S140
M190 S55
G90
G28 ;home
G1 Z10 F300
G1 X67.5 Y0 F6000
G1 Z0 F300
M109 S220
G92 E0 ;Reset Extruder
G1 X67.5 Y0 Z0.4 F300 ;Move to start position
G1 X167.5 E30 F400 ;Draw the first line
G1 Z0.6 F120.0 ;Move to side a little
G1 X162.5 F3000
G92 E0 ;Reset Extruder
G90
G21
M83 ; use relative distances for extrusion
; Filament gcode
M106 S0
;LAYER_CHANGE
;Z:0.2
;HEIGHT:0.2
;BEFORE_LAYER_CHANGE
G92 E0
;0.2


G1 E-.8 F3600
;AFTER_LAYER_CHANGE
;0.2
;_SET_FAN_SPEED_CHANGING_LAYER
SET_VELOCITY_LIMIT ACCEL=1000 ACCEL_TO_DECEL=500
SET_VELOCITY_LIMIT SQUARE_CORNER_VELOCITY=7
G1 X75.951 Y74.881 F21000
G1 Z.6
G1 Z.2
G1 E.8 F2700
;TYPE:Skirt
;WIDTH:0.42
G1 F3000
G1 X76.675 Y74.416 E.02643
G1 X77.5 Y74.259 E.02581
G1 X157.567 Y74.261 E2.46023
G1 X158.368 Y74.434 E.02519
G1 X159.085 Y74.915 E.02652
G1 X159.583 Y75.673 E.02785
G1 X159.741 Y76.5 E.02589
G1 X159.742 Y147.5 E2.18163
G1 X159.55 Y148.404 E.0284
G1 X159.049 Y149.119 E.02684
G1 X158.325 Y149.584 E.02643
G1 X157.5 Y149.742 E.0258
G1 X77.5 Y149.742 E2.45818
G1 X76.672 Y149.583 E.02589
G1 X76.254 Y149.362 E.01455
G1 X75.877 Y149.045 E.01512
G1 X75.396 Y148.273 E.02795
G1 X64.924 Y118.047 E.98295
G1 X64.858 Y117.658 E.01211
G1 X64.856 Y113.683 E.12216
G1 X75.342 Y75.895 E1.20498
G1 X75.572 Y75.359 E.01792
G1 X75.926 Y74.913 E.01753
; printing object casse_bottom_02.stl id:0 copy 0
G1 E-.68 F3600
;WIPE_START
G1 F3000
G1 X76.675 Y74.416 E-.10778
G1 X76.775 Y74.397 E-.01222
;WIPE_END
EXCLUDE_OBJECT_START NAME=casse_bottom_02.stl_id_0_copy_0
G1 X75.782 Y81.965 Z.6 F21000
G1 X72.061 Y110.327 Z.6
G1 Z.2
G1 E.8 F2700
;TYPE:Support
G1 F3000
G1 X72.628 Y110.344 E.01743
G1 X73.575 Y110.548 E.02978
G1 X74.469 Y110.919 E.02974
G1 X75.283 Y111.445 E.02978
G1 X75.99 Y112.11 E.02981
G1 X76.466 Y112.757 E.02469
G1 X76.466 Y118.581 E.17896
G1 X75.99 Y119.228 E.02469
G1 X75.283 Y119.893 E.02981
G1 X74.469 Y120.42 E.02978
G1 X73.575 Y120.79 E.02974
G1 X72.63 Y120.994 E.0297
G1 X71.666 Y121.024 E.02965
G1 X70.714 Y120.881 E.02958
G1 X69.806 Y120.57 E.0295
G1 X68.924 Y120.076 E.03106
G1 X66.251 Y117.59 E.11216
G1 X67.377 Y117.135 E.03731
G1 X67.282 Y116.779 E.01132
G1 X67.201 Y116.324 E.0142
G1 X67.165 Y115.918 E.01252
G1 X67.165 Y115.42 E.01529
G1 X67.201 Y115.014 E.01252
G1 X67.287 Y114.529 E.01516
G1 X67.385 Y114.208 E.01029
G1 X66.249 Y113.75 E.03763
G1 X68.924 Y111.262 E.11224
G1 X69.806 Y110.768 E.03106
G1 X70.714 Y110.457 E.0295
G1 X71.671 Y110.313 E.02973
G1 X72.004 Y110.325 E.01026
G1 X76.021 Y118.899 F21000
G1 F3000
G1 X76.021 Y112.725 E.18969
G1 X75.735 Y112.336 E.01486
G1 X75.602 Y112.211 E.00558
G1 X75.602 Y119.127 E.21249
G1 X75.183 Y119.521 E.01768
G1 X75.183 Y111.817 E.23673
G1 X75.073 Y111.713 E.00465
G1 X74.764 Y111.513 E.0113
G1 X74.764 Y119.825 E.25538
G1 X74.345 Y120.096 E.01533
G1 X74.345 Y111.242 E.27203
G1 X74.311 Y111.22 E.00126
G1 X73.926 Y111.061 E.01279
G1 X73.926 Y120.277 E.2832
G1 X73.507 Y120.451 E.01394
G1 X73.507 Y110.887 E.29388
G1 X73.474 Y110.873 E.00112
G1 X73.088 Y110.79 E.01211
G1 X73.088 Y120.548 E.29984
G1 X72.669 Y120.638 E.01317
G1 X72.669 Y110.7 E.30539
G1 X72.587 Y110.682 E.00259
G1 X72.25 Y110.672 E.01034
G1 X72.25 Y120.666 E.30709
G1 X71.832 Y120.68 E.01288
G1 X71.832 Y110.659 E.30792
G1 X71.69 Y110.653 E.00435
G1 X71.413 Y110.695 E.00862
G1 X71.413 Y120.643 E.30566
G1 X70.994 Y120.58 E.01302
G1 X70.994 Y110.758 E.30179
G1 X70.795 Y110.788 E.00617
G1 X70.575 Y110.864 E.00716
G1 X70.575 Y120.474 E.29531
G1 X70.156 Y120.331 E.01361
G1 X70.156 Y111.007 E.28649
G1 X69.945 Y111.08 E.00685
G1 X69.737 Y111.196 E.00733
G1 X69.737 Y120.142 E.27489
G1 X69.318 Y119.908 E.01475
G1 X69.318 Y111.431 E.26047
G1 X69.125 Y111.538 E.00678
G1 X68.899 Y111.749 E.0095
G1 X68.899 Y119.589 E.24091
G1 X68.48 Y119.2 E.01758
G1 X68.48 Y112.139 E.21696
G1 X68.061 Y112.528 E.01758
G1 X68.061 Y118.81 E.19302
G1 X67.642 Y118.42 E.01758
G1 X67.642 Y112.918 E.16907
G1 X67.223 Y113.308 E.01758
G1 X67.223 Y113.96 E.02004
G1 X67.223 Y118.262 F21000
G1 F3000
G1 X67.223 Y117.38 E.02711
G1 E-.68 F3600
;WIPE_START
G1 F3000
G1 X67.223 Y118.262 E-.12
;WIPE_END
G1 X69.139 Y110.874 Z.6 F21000
G1 X77.94 Y76.941 Z.6
M73 P1 R57
G1 Z.2
G1 E.8 F2700
;TYPE:Inner wall
;WIDTH:0.419999
G1 F3000
G1 X157.059 Y76.942 E2.43111
G1 X157.06 Y147.059 E2.1545
G1 X77.94 Y147.059 E2.43113
G1 X77.94 Y76.981 E2.15331
M73 P1 R56
G1 X77.59 Y76.564 F21000
G1 F3000
G1 X157.436 Y76.565 E2.45344
G1 X157.437 Y147.436 E2.17767
G1 X77.563 Y147.436 E2.4543
G1 X77.563 Y76.593 E2.17683
G1 X77.527 Y76.187 F21000
;TYPE:Outer wall
G1 F3000
G1 X157.423 Y76.188 E2.45496
G1 X157.692 Y76.262 E.00856
G1 X157.781 Y76.375 E.00444
G1 X157.813 Y76.564 E.00589
G1 X157.814 Y147.562 E2.18154
G1 X157.692 Y147.733 E.00647
G1 X157.473 Y147.813 E.00718
G1 X77.583 Y147.813 E2.45477
G1 X77.343 Y147.762 E.00755
G1 X77.222 Y147.631 E.00547
G1 X77.186 Y147.474 E.00497
G1 X77.186 Y76.591 E2.17802
G1 X77.245 Y76.332 E.00816
G1 X77.363 Y76.226 E.00489
G1 X77.488 Y76.196 E.00395
G1 E-.68 F3600
;WIPE_START
G1 F3000
G1 X78.488 Y76.196 E-.12
;WIPE_END
G1 X86.08 Y76.981 Z.6 F21000
G1 X148.025 Y83.39 Z.6
G1 Z.2
G1 E.8 F2700
;TYPE:Inner wall
G1 F3000
G1 X148.315 Y83.693 E.01288
G1 X148.62 Y84.206 E.01836
G1 X148.784 Y84.834 E.01994
G1 X148.793 Y85.328 E.01519
G1 X148.718 Y85.739 E.01282
G1 X148.529 Y86.22 E.0159
G1 X148.257 Y86.63 E.01511
G1 X147.961 Y86.926 E.01286
G1 X147.553 Y87.204 E.01518
G1 X147.168 Y87.366 E.01282
G1 X146.661 Y87.471 E.0159
G1 X146.17 Y87.467 E.01511
G1 X145.76 Y87.381 E.01285
G1 X145.307 Y87.193 E.0151
G1 X144.959 Y86.959 E.01286
G1 X144.61 Y86.614 E.0151
G1 X144.376 Y86.267 E.01286
G1 X144.175 Y85.788 E.01595
G1 X144.084 Y85.277 E.01596
G1 X144.12 Y84.706 E.01756
G1 X144.292 Y84.134 E.01835
G1 X144.642 Y83.59 E.0199
G1 X145.02 Y83.234 E.01595
G1 X145.514 Y82.953 E.01745
G1 X146.082 Y82.783 E.01821
G1 X146.713 Y82.774 E.01939
G1 X147.121 Y82.86 E.01282
G1 X147.574 Y83.048 E.01506
G1 X147.921 Y83.281 E.01286
G1 X147.997 Y83.361 E.00339
G1 X147.75 Y83.644 F21000
G1 F3000
G1 X147.994 Y83.89 E.01065
G1 X148.275 Y84.358 E.01679
G1 X148.407 Y84.855 E.01579
G1 X148.42 Y85.276 E.01295
G1 X148.362 Y85.616 E.0106
G1 X148.208 Y86.023 E.01336
G1 X147.979 Y86.375 E.01289
G1 X147.738 Y86.622 E.01062
G1 X147.392 Y86.863 E.01294
G1 X147.076 Y87 E.0106
G1 X146.651 Y87.094 E.01336
G1 X146.231 Y87.095 E.01289
G1 X145.892 Y87.028 E.01062
G1 X145.504 Y86.871 E.01288
G1 X145.215 Y86.682 E.01062
G1 X144.914 Y86.39 E.01288
G1 X144.717 Y86.106 E.01063
G1 X144.543 Y85.706 E.01341
G1 X144.461 Y85.277 E.01342
G1 X144.483 Y84.81 E.01437
G1 X144.638 Y84.284 E.01683
G1 X144.913 Y83.852 E.01572
G1 X145.227 Y83.549 E.01341
G1 X145.627 Y83.313 E.01428
G1 X146.147 Y83.155 E.0167
G1 X146.651 Y83.145 E.01548
G1 X146.989 Y83.213 E.0106
G1 X147.376 Y83.369 E.01284
G1 X147.665 Y83.559 E.01062
G1 X147.722 Y83.615 E.00245
G1 X147.483 Y83.906 F21000
;TYPE:Outer wall
G1 F3000
G1 X147.672 Y84.087 E.00805
G1 X147.939 Y84.535 E.01602
G1 X148.031 Y84.876 E.01084
G1 X148.046 Y85.224 E.01072
G1 X148.005 Y85.494 E.00838
G1 X147.886 Y85.826 E.01083
G1 X147.702 Y86.12 E.01067
G1 X147.514 Y86.318 E.00839
G1 X147.231 Y86.522 E.01071
G1 X146.983 Y86.635 E.00838
G1 X146.641 Y86.717 E.01082
G1 X146.293 Y86.723 E.01067
G1 X146.025 Y86.675 E.00839
G1 X145.701 Y86.55 E.01066
G1 X145.47 Y86.404 E.00839
G1 X145.217 Y86.167 E.01066
G1 X145.058 Y85.945 E.00839
G1 X144.911 Y85.623 E.01087
G1 X144.838 Y85.277 E.01088
G1 X144.846 Y84.913 E.01118
G1 X144.996 Y84.41 E.01613
G1 X145.183 Y84.115 E.01071
G1 X145.433 Y83.865 E.01088
G1 X145.74 Y83.673 E.01113
G1 X146.24 Y83.523 E.01602
G1 X146.588 Y83.517 E.01072
G1 X146.857 Y83.566 E.00838
G1 X147.179 Y83.69 E.01062
G1 X147.41 Y83.836 E.00839
G1 X147.454 Y83.878 E.00188
G1 E-.68 F3600
;WIPE_START
G1 F3000
G1 X147.672 Y84.087 E-.03625
G1 X147.939 Y84.535 E-.06255
G1 X147.985 Y84.706 E-.0212
;WIPE_END
G1 X147.785 Y92.336 Z.6 F21000
G1 X147.185 Y115.288 Z.6
G1 Z.2
G1 E.8 F2700
;TYPE:Inner wall
G1 F3000
G1 X147.046 Y115.342 E.00457
G1 X146.54 Y115.419 E.01573
G1 X146.014 Y115.378 E.0162
G1 X145.713 Y115.302 E.00954
G1 X145.247 Y115.097 E.01563
G1 X144.836 Y114.797 E.01565
G1 X144.495 Y114.405 E.01598
G1 X144.246 Y113.94 E.01619
G1 X144.115 Y113.473 E.01491
G1 X144.081 Y112.957 E.0159
G1 X144.125 Y112.581 E.01163
G1 X144.293 Y112.077 E.01631
G1 X144.54 Y111.657 E.01496
G1 X144.822 Y111.341 E.01303
G1 X145.237 Y111.028 E.01597
G1 X145.712 Y110.814 E.01599
G1 X146.218 Y110.71 E.0159
G1 X146.71 Y110.713 E.01511
G1 X147.12 Y110.799 E.01286
G1 X147.574 Y110.988 E.0151
G1 X147.921 Y111.221 E.01286
G1 X148.301 Y111.611 E.01673
G1 X148.578 Y112.051 E.01597
G1 X148.742 Y112.545 E.01602
G1 X148.801 Y113.086 E.01672
G1 X148.755 Y113.536 E.01388
G1 X148.543 Y114.136 E.01958
G1 X148.319 Y114.49 E.01286
G1 X147.961 Y114.866 E.01595
G1 X147.53 Y115.155 E.01596
G1 X147.222 Y115.274 E.01013
G1 X147.055 Y114.939 F21000
G1 F3000
G1 X146.974 Y114.972 E.00271
G1 X146.512 Y115.041 E.01433
G1 X146.009 Y114.998 E.01551
G1 X145.436 Y114.769 E.01898
G1 X145.046 Y114.473 E.01502
G1 X144.774 Y114.139 E.01323
G1 X144.583 Y113.764 E.01295
G1 X144.49 Y113.431 E.0106
G1 X144.456 Y112.998 E.01336
G1 X144.496 Y112.649 E.0108
G1 X144.625 Y112.256 E.0127
G1 X144.831 Y111.896 E.01275
G1 X145.062 Y111.632 E.01077
G1 X145.407 Y111.365 E.01342
G1 X145.804 Y111.18 E.01345
G1 X146.229 Y111.087 E.01337
G1 X146.648 Y111.085 E.01289
G1 X146.987 Y111.152 E.01062
G1 X147.376 Y111.309 E.01288
G1 X147.665 Y111.499 E.01062
G1 X147.985 Y111.817 E.01387
G1 X148.266 Y112.286 E.01679
G1 X148.407 Y112.795 E.01625
G1 X148.42 Y113.216 E.01294
G1 X148.362 Y113.556 E.0106
G1 X148.216 Y113.948 E.01283
G1 X148.035 Y114.242 E.01062
G1 X147.738 Y114.562 E.01341
G1 X147.378 Y114.809 E.01342
G1 X147.093 Y114.924 E.00946
G1 X146.918 Y114.595 F21000
;TYPE:Outer wall
G1 F3000
G1 X146.901 Y114.602 E.00057
G1 X146.543 Y114.665 E.01117
G1 X146.043 Y114.621 E.01543
G1 X145.58 Y114.42 E.01551
G1 X145.331 Y114.226 E.00969
G1 X145.106 Y113.96 E.01071
G1 X144.943 Y113.652 E.01072
G1 X144.865 Y113.39 E.00838
G1 X144.831 Y113.039 E.01082
G1 X144.867 Y112.717 E.00997
G1 X144.957 Y112.435 E.00908
G1 X145.123 Y112.135 E.01054
G1 X145.301 Y111.923 E.00852
G1 X145.577 Y111.702 E.01088
G1 X145.897 Y111.545 E.01092
G1 X146.239 Y111.463 E.01083
G1 X146.587 Y111.457 E.01067
G1 X146.855 Y111.505 E.00839
G1 X147.179 Y111.63 E.01066
G1 X147.41 Y111.776 E.00839
G1 X147.67 Y112.023 E.01101
G1 X147.906 Y112.398 E.01363
G1 X148.031 Y112.816 E.0134
G1 X148.046 Y113.164 E.01071
G1 X148.005 Y113.434 E.00838
G1 X147.89 Y113.76 E.01062
G1 X147.75 Y113.994 E.00839
G1 X147.515 Y114.258 E.01087
G1 X147.227 Y114.464 E.01088
G1 X146.955 Y114.579 E.00906
G1 E-.68 F3600
;WIPE_START
G1 F3000
G1 X146.901 Y114.602 E-.00702
G1 X146.543 Y114.665 E-.04363
G1 X146.043 Y114.621 E-.06027
G1 X145.973 Y114.591 E-.00907
;WIPE_END
G1 X138.586 Y116.51 Z.6 F21000
G1 X93.293 Y128.279 Z.6
G1 Z.2
G1 E.8 F2700
;TYPE:Inner wall
G1 F3000
G1 X93.288 Y128.055 E.00689
G1 X93.399 Y127.558 E.01562
G1 X93.602 Y127.106 E.01523
G1 X93.847 Y126.765 E.01291
G1 X94.197 Y126.43 E.0149
G1 X94.551 Y126.206 E.01286
G1 X95.034 Y126.018 E.01592
G1 X95.515 Y125.941 E.01497
G1 X96.01 Y125.972 E.01526
G1 X96.245 Y126.018 E.00735
G1 X96.729 Y126.205 E.01595
G1 X97.164 Y126.493 E.016
G1 X97.521 Y126.868 E.01593
G1 X97.765 Y127.271 E.01446
G1 X97.933 Y127.733 E.01513
G1 X97.996 Y128.145 E.01282
G1 X97.979 Y128.635 E.01505
G1 X97.881 Y129.042 E.01286
G1 X97.681 Y129.49 E.0151
G1 X97.438 Y129.831 E.01286
G1 X97.083 Y130.171 E.0151
G1 X96.729 Y130.395 E.01286
G1 X96.268 Y130.577 E.01523
G1 X95.855 Y130.651 E.01292
G1 X95.342 Y130.642 E.01576
G1 X94.861 Y130.53 E.01518
G1 X94.481 Y130.357 E.01282
G1 X94.06 Y130.055 E.01591
G1 X93.715 Y129.667 E.01595
G1 X93.448 Y129.165 E.01748
G1 X93.3 Y128.628 E.01712
G1 X93.294 Y128.319 E.00949
G1 X93.67 Y128.264 F21000
G1 F3000
G1 X93.67 Y128.048 E.00663
