; HEADER_BLOCK_START
; generated by OrcaSlicer 2.3.0-beta2 on 2025-03-11 at 02:39:19
; total layer number: 115
;_GP_TOTAL_LAYER_NUMBER_PLACEHOLDER
; filament_density: 1.24
; filament_diameter: 1.75
; max_z_height: 23.00
; HEADER_BLOCK_END

; THUMBNAIL_BLOCK_START

;
; THUMBNAIL_BLOCK_END







; external perimeters extrusion width = 0.40mm
; perimeters extrusion width = 0.45mm
; infill extrusion width = 0.45mm
; solid infill extrusion width = 0.45mm
; top infill extrusion width = 0.38mm
; support material extrusion width = 0.38mm
; first layer extrusion width = 0.42mm

; EXECUTABLE_BLOCK_START
EXCLUDE_OBJECT_DEFINE NAME=keypad_holder_03.stl_id_0_copy_0 CENTER=131.117,109.683 POLYGON=[[91.1171,74.1831],[171.117,74.1831],[171.117,145.183],[91.1171,145.183],[91.1171,74.1831]]
M73 P0 R64
;TYPE:Custom
;ELEGOO NEPTUNE 4 PRO
M220 S100 ;Set the feed speed to 100%
M221 S100 ;Set the flow rate to 100%
M104 S140
M190 S55
G90
G28 ;home
G1 Z10 F300
G1 X67.5 Y0 F6000
G1 Z0 F300
M109 S220
G92 E0 ;Reset Extruder
G1 X67.5 Y0 Z0.4 F300 ;Move to start position
G1 X167.5 E30 F400 ;Draw the first line
G1 Z0.6 F120.0 ;Move to side a little
G1 X162.5 F3000
G92 E0 ;Reset Extruder
G90
G21
M83 ; use relative distances for extrusion
; Filament gcode
M106 S0
;LAYER_CHANGE
;Z:0.2
;HEIGHT:0.2
;BEFORE_LAYER_CHANGE
G92 E0
;0.2


G1 E-.8 F3600
;AFTER_LAYER_CHANGE
;0.2
;_SET_FAN_SPEED_CHANGING_LAYER
SET_VELOCITY_LIMIT ACCEL=1000 ACCEL_TO_DECEL=500
SET_VELOCITY_LIMIT SQUARE_CORNER_VELOCITY=7
G1 X88.583 Y68.957 F21000
G1 Z.6
G1 Z.2
G1 E.8 F2700
;TYPE:Skirt
;WIDTH:0.42
G1 F3000
G1 X89.624 Y68.571 E.03412
G1 X91.117 Y68.37 E.0463
G1 X171.205 Y68.373 E2.46089
G1 X172.05 Y68.449 E.02607
G1 X172.918 Y68.667 E.02749
G1 X174.044 Y69.176 E.03796
G1 X175.248 Y70.099 E.04662
G1 X175.903 Y70.887 E.03148
G1 X176.341 Y71.642 E.02683
G1 X176.713 Y72.63 E.03243
G1 X176.928 Y74.105 E.04581
G1 X176.931 Y145.183 E2.18403
G1 X176.877 Y145.942 E.02337
G1 X176.703 Y146.772 E.02607
G1 X176.271 Y147.838 E.03535
G1 X175.762 Y148.663 E.02977
G1 X175.074 Y149.436 E.03181
G1 X174.413 Y149.969 E.02607
G1 X173.652 Y150.409 E.02703
G1 X172.611 Y150.795 E.03412
G1 X171.117 Y150.997 E.0463
G1 X91.117 Y150.997 E2.45818
G1 X90.359 Y150.943 E.02337
G1 X89.528 Y150.769 E.02607
G1 X88.462 Y150.336 E.03535
G1 X87.638 Y149.828 E.02977
G1 X86.864 Y149.14 E.03181
G1 X86.332 Y148.479 E.02607
G1 X85.891 Y147.718 E.02703
G1 X85.505 Y146.676 E.03412
G1 X85.304 Y145.183 E.0463
G1 X85.304 Y74.183 E2.18163
G1 X85.357 Y73.424 E.02337
G1 X85.532 Y72.594 E.02607
G1 X85.964 Y71.528 E.03535
G1 X86.473 Y70.704 E.02977
G1 X87.16 Y69.93 E.03181
G1 X87.821 Y69.398 E.02607
G1 X88.548 Y68.977 E.0258
; printing object keypad_holder_03.stl id:0 copy 0
G1 E-.68 F3600
;WIPE_START
G1 F3000
G1 X89.484 Y68.624 E-.12
;WIPE_END
EXCLUDE_OBJECT_START NAME=keypad_holder_03.stl_id_0_copy_0
G1 X97.097 Y69.156 Z.6 F21000
G1 X163.157 Y73.773 Z.6
G1 Z.2
G1 E.8 F2700
;TYPE:Support
G1 F3000
G1 X162.197 Y73.773 E.02949
G1 X161.957 Y74.013 E.01044
G1 X161.957 Y75.353 E.04116
G1 X162.197 Y75.593 E.01044
G1 X168.707 Y75.593 E.20003
G1 X168.707 Y143.773 E2.09498
G1 X93.527 Y143.773 E2.31007
G1 X93.527 Y75.593 E2.09498
G1 X161.037 Y75.593 E2.07439
G1 X161.277 Y75.353 E.01044
G1 X161.277 Y74.135 E.03741
G1 X161.98 Y73.606 E.02703
G1 X163.157 Y72.719 E.04529
G1 X163.157 Y73.717 E.03064
G1 E-.68 F3600
;WIPE_START
G1 F3000
G1 X163.157 Y72.719 E-.11965
G1 X163.155 Y72.721 E-.00035
;WIPE_END
G1 X162.679 Y80.339 Z.6 F21000
G1 X160.956 Y107.927 Z.6
G1 Z.2
G1 E.8 F2700
G1 F3000
G1 X161.395 Y107.76 E.01441
G1 X161.5 Y108.153 E.0125
G1 X161.171 Y108.78 E.02177
G1 X160.97 Y107.981 E.02532
G1 X167.987 Y143.603 F21000
G1 F3000
G1 X167.987 Y75.932 E2.07934
G1 X167.568 Y75.932 E.01287
G1 X167.568 Y143.434 E2.07413
G1 X167.149 Y143.434 E.01287
M73 P0 R63
G1 X167.149 Y75.932 E2.07413
G1 X166.73 Y75.932 E.01287
M73 P1 R63
G1 X166.73 Y143.434 E2.07413
G1 X166.311 Y143.434 E.01287
G1 X166.311 Y75.932 E2.07413
G1 X165.892 Y75.932 E.01287
G1 X165.892 Y143.434 E2.07413
G1 X165.473 Y143.434 E.01287
G1 X165.473 Y75.932 E2.07413
G1 X165.054 Y75.932 E.01287
G1 X165.054 Y143.434 E2.07413
G1 X164.635 Y143.434 E.01287
G1 X164.635 Y75.932 E2.07413
G1 X164.216 Y75.932 E.01287
G1 X164.216 Y143.434 E2.07413
G1 X163.797 Y143.434 E.01287
G1 X163.797 Y75.932 E2.07413
G1 X163.378 Y75.932 E.01287
G1 X163.378 Y143.434 E2.07413
G1 X162.959 Y143.434 E.01287
G1 X162.959 Y75.932 E2.07413
G1 X162.54 Y75.932 E.01287
G1 X162.54 Y143.434 E2.07413
G1 X162.121 Y143.434 E.01287
G1 X162.121 Y75.932 E2.07413
G1 X162.057 Y75.932 E.00199
G1 X161.702 Y75.578 E.0154
G1 X161.702 Y143.434 E2.08501
G1 X161.283 Y143.434 E.01287
G1 X161.283 Y109.296 E1.04896
G1 X161.058 Y109.725 E.0149
G1 X160.865 Y108.955 E.02441
G1 X160.865 Y143.434 E1.05945
G1 X160.446 Y143.434 E.01287
G1 X160.446 Y75.932 E2.07413
G1 X160.865 Y75.932 E.01287
G1 X160.865 Y107.598 E.97301
G1 X161.283 Y107.439 E.01377
G1 X161.283 Y75.587 E.97875
G1 X160.027 Y143.603 F21000
G1 F3000
G1 X160.027 Y75.932 E2.07934
G1 X159.608 Y75.932 E.01287
G1 X159.608 Y143.434 E2.07413
G1 X159.189 Y143.434 E.01287
G1 X159.189 Y75.932 E2.07413
G1 X158.77 Y75.932 E.01287
G1 X158.77 Y143.434 E2.07413
G1 X158.351 Y143.434 E.01287
G1 X158.351 Y75.932 E2.07413
G1 X157.932 Y75.932 E.01287
G1 X157.932 Y143.434 E2.07413
G1 X157.513 Y143.434 E.01287
G1 X157.513 Y75.932 E2.07413
G1 X157.094 Y75.932 E.01287
G1 X157.094 Y143.434 E2.07413
G1 X156.675 Y143.434 E.01287
G1 X156.675 Y75.932 E2.07413
G1 X156.256 Y75.932 E.01287
G1 X156.256 Y143.434 E2.07413
G1 X155.837 Y143.434 E.01287
G1 X155.837 Y75.932 E2.07413
M73 P2 R63
G1 X155.418 Y75.932 E.01287
G1 X155.418 Y143.434 E2.07413
G1 X154.999 Y143.434 E.01287
G1 X154.999 Y75.932 E2.07413
G1 X154.58 Y75.932 E.01287
G1 X154.58 Y143.434 E2.07413
G1 X154.161 Y143.434 E.01287
G1 X154.161 Y75.932 E2.07413
G1 X153.742 Y75.932 E.01287
G1 X153.742 Y143.434 E2.07413
G1 X153.323 Y143.434 E.01287
G1 X153.323 Y75.932 E2.07413
G1 X152.904 Y75.932 E.01287
G1 X152.904 Y143.434 E2.07413
G1 X152.485 Y143.434 E.01287
G1 X152.485 Y75.932 E2.07413
G1 X152.066 Y75.932 E.01287
G1 X152.066 Y143.434 E2.07413
G1 X151.647 Y143.434 E.01287
G1 X151.647 Y75.932 E2.07413
G1 X151.228 Y75.932 E.01287
G1 X151.228 Y143.434 E2.07413
G1 X150.809 Y143.434 E.01287
G1 X150.809 Y75.932 E2.07413
G1 X150.39 Y75.932 E.01287
G1 X150.39 Y143.434 E2.07413
G1 X149.971 Y143.434 E.01287
G1 X149.971 Y75.932 E2.07413
G1 X149.552 Y75.932 E.01287
M73 P2 R62
G1 X149.552 Y143.434 E2.07413
G1 X149.133 Y143.434 E.01287
G1 X149.133 Y75.932 E2.07413
G1 X148.714 Y75.932 E.01287
G1 X148.714 Y143.434 E2.07413
G1 X148.295 Y143.434 E.01287
G1 X148.295 Y75.932 E2.07413
G1 X147.876 Y75.932 E.01287
G1 X147.876 Y143.434 E2.07413
G1 X147.457 Y143.434 E.01287
G1 X147.457 Y75.932 E2.07413
G1 X147.038 Y75.932 E.01287
G1 X147.038 Y143.434 E2.07413
G1 X146.619 Y143.434 E.01287
G1 X146.619 Y75.932 E2.07413
G1 X146.2 Y75.932 E.01287
G1 X146.2 Y143.434 E2.07413
G1 X145.781 Y143.434 E.01287
G1 X145.781 Y75.932 E2.07413
G1 X145.362 Y75.932 E.01287
G1 X145.362 Y143.434 E2.07413
G1 X144.943 Y143.434 E.01287
G1 X144.943 Y75.932 E2.07413
G1 X144.524 Y75.932 E.01287
G1 X144.524 Y143.434 E2.07413
G1 X144.105 Y143.434 E.01287
M73 P3 R62
G1 X144.105 Y75.932 E2.07413
G1 X143.686 Y75.932 E.01287
G1 X143.686 Y143.434 E2.07413
G1 X143.267 Y143.434 E.01287
G1 X143.267 Y75.932 E2.07413
G1 X142.849 Y75.932 E.01287
G1 X142.849 Y143.434 E2.07413
G1 X142.43 Y143.434 E.01287
G1 X142.43 Y75.932 E2.07413
G1 X142.011 Y75.932 E.01287
G1 X142.011 Y143.434 E2.07413
G1 X141.592 Y143.434 E.01287
G1 X141.592 Y75.932 E2.07413
G1 X141.173 Y75.932 E.01287
G1 X141.173 Y143.434 E2.07413
G1 X140.754 Y143.434 E.01287
G1 X140.754 Y75.932 E2.07413
G1 X140.335 Y75.932 E.01287
G1 X140.335 Y143.434 E2.07413
G1 X139.916 Y143.434 E.01287
G1 X139.916 Y75.932 E2.07413
G1 X139.497 Y75.932 E.01287
G1 X139.497 Y143.434 E2.07413
G1 X139.078 Y143.434 E.01287
G1 X139.078 Y75.932 E2.07413
G1 X138.659 Y75.932 E.01287
G1 X138.659 Y143.434 E2.07413
G1 X138.24 Y143.434 E.01287
G1 X138.24 Y75.932 E2.07413
G1 X137.821 Y75.932 E.01287
G1 X137.821 Y143.434 E2.07413
G1 X137.402 Y143.434 E.01287
G1 X137.402 Y75.932 E2.07413
G1 X136.983 Y75.932 E.01287
G1 X136.983 Y143.434 E2.07413
G1 X136.564 Y143.434 E.01287
G1 X136.564 Y75.932 E2.07413
G1 X136.145 Y75.932 E.01287
G1 X136.145 Y143.434 E2.07413
G1 X135.726 Y143.434 E.01287
G1 X135.726 Y75.932 E2.07413
G1 X135.307 Y75.932 E.01287
G1 X135.307 Y143.434 E2.07413
G1 X134.888 Y143.434 E.01287
G1 X134.888 Y75.932 E2.07413
G1 X134.469 Y75.932 E.01287
G1 X134.469 Y143.434 E2.07413
G1 X134.05 Y143.434 E.01287
G1 X134.05 Y75.932 E2.07413
G1 X133.631 Y75.932 E.01287
G1 X133.631 Y143.434 E2.07413
G1 X133.212 Y143.434 E.01287
G1 X133.212 Y75.932 E2.07413
G1 X132.793 Y75.932 E.01287
M73 P4 R62
G1 X132.793 Y143.434 E2.07413
G1 X132.374 Y143.434 E.01287
G1 X132.374 Y75.932 E2.07413
G1 X131.955 Y75.932 E.01287
M73 P4 R61
G1 X131.955 Y143.434 E2.07413
G1 X131.536 Y143.434 E.01287
G1 X131.536 Y75.932 E2.07413
G1 X131.117 Y75.932 E.01287
G1 X131.117 Y143.434 E2.07413
G1 X130.698 Y143.434 E.01287
G1 X130.698 Y75.932 E2.07413
G1 X130.279 Y75.932 E.01287
G1 X130.279 Y143.434 E2.07413
G1 X129.86 Y143.434 E.01287
G1 X129.86 Y75.932 E2.07413
G1 X129.441 Y75.932 E.01287
G1 X129.441 Y143.434 E2.07413
G1 X129.022 Y143.434 E.01287
G1 X129.022 Y75.932 E2.07413
G1 X128.603 Y75.932 E.01287
G1 X128.603 Y143.434 E2.07413
G1 X128.184 Y143.434 E.01287
G1 X128.184 Y75.932 E2.07413
G1 X127.765 Y75.932 E.01287
G1 X127.765 Y143.434 E2.07413
G1 X127.346 Y143.434 E.01287
G1 X127.346 Y75.932 E2.07413
G1 X126.927 Y75.932 E.01287
G1 X126.927 Y143.434 E2.07413
G1 X126.508 Y143.434 E.01287
G1 X126.508 Y75.932 E2.07413
G1 X126.089 Y75.932 E.01287
G1 X126.089 Y143.434 E2.07413
G1 X125.67 Y143.434 E.01287
G1 X125.67 Y75.932 E2.07413
G1 X125.251 Y75.932 E.01287
G1 X125.251 Y143.434 E2.07413
G1 X124.832 Y143.434 E.01287
G1 X124.832 Y75.932 E2.07413
G1 X124.414 Y75.932 E.01287
G1 X124.414 Y143.434 E2.07413
G1 X123.995 Y143.434 E.01287
G1 X123.995 Y75.932 E2.07413
G1 X123.576 Y75.932 E.01287
G1 X123.576 Y143.434 E2.07413
G1 X123.157 Y143.434 E.01287
G1 X123.157 Y75.932 E2.07413
G1 X122.738 Y75.932 E.01287
G1 X122.738 Y143.434 E2.07413
G1 X122.319 Y143.434 E.01287
G1 X122.319 Y75.932 E2.07413
G1 X121.9 Y75.932 E.01287
G1 X121.9 Y143.434 E2.07413
G1 X121.481 Y143.434 E.01287
G1 X121.481 Y75.932 E2.07413
G1 X121.062 Y75.932 E.01287
M73 P5 R61
G1 X121.062 Y143.434 E2.07413
G1 X120.643 Y143.434 E.01287
G1 X120.643 Y75.932 E2.07413
G1 X120.224 Y75.932 E.01287
G1 X120.224 Y143.434 E2.07413
G1 X119.805 Y143.434 E.01287
G1 X119.805 Y75.932 E2.07413
G1 X119.386 Y75.932 E.01287
G1 X119.386 Y143.434 E2.07413
G1 X118.967 Y143.434 E.01287
G1 X118.967 Y75.932 E2.07413
G1 X118.548 Y75.932 E.01287
G1 X118.548 Y143.434 E2.07413
G1 X118.129 Y143.434 E.01287
G1 X118.129 Y75.932 E2.07413
G1 X117.71 Y75.932 E.01287
G1 X117.71 Y143.434 E2.07413
G1 X117.291 Y143.434 E.01287
G1 X117.291 Y75.932 E2.07413
G1 X116.872 Y75.932 E.01287
G1 X116.872 Y143.434 E2.07413
G1 X116.453 Y143.434 E.01287
G1 X116.453 Y75.932 E2.07413
G1 X116.034 Y75.932 E.01287
G1 X116.034 Y143.434 E2.07413
G1 X115.615 Y143.434 E.01287
G1 X115.615 Y75.932 E2.07413
G1 X115.196 Y75.932 E.01287
G1 X115.196 Y143.434 E2.07413
G1 X114.777 Y143.434 E.01287
G1 X114.777 Y75.932 E2.07413
G1 X114.358 Y75.932 E.01287
M73 P5 R60
G1 X114.358 Y143.434 E2.07413
G1 X113.939 Y143.434 E.01287
G1 X113.939 Y75.932 E2.07413
G1 X113.52 Y75.932 E.01287
G1 X113.52 Y143.434 E2.07413
G1 X113.101 Y143.434 E.01287
G1 X113.101 Y75.932 E2.07413
G1 X112.682 Y75.932 E.01287
G1 X112.682 Y143.434 E2.07413
G1 X112.263 Y143.434 E.01287
G1 X112.263 Y75.932 E2.07413
G1 X111.844 Y75.932 E.01287
G1 X111.844 Y143.434 E2.07413
G1 X111.425 Y143.434 E.01287
G1 X111.425 Y75.932 E2.07413
G1 X111.006 Y75.932 E.01287
G1 X111.006 Y143.434 E2.07413
G1 X110.587 Y143.434 E.01287
G1 X110.587 Y75.932 E2.07413
G1 X110.168 Y75.932 E.01287
G1 X110.168 Y143.434 E2.07413
G1 X109.749 Y143.434 E.01287
M73 P6 R60
G1 X109.749 Y75.932 E2.07413
G1 X109.33 Y75.932 E.01287
G1 X109.33 Y143.434 E2.07413
G1 X108.911 Y143.434 E.01287
G1 X108.911 Y75.932 E2.07413
G1 X108.492 Y75.932 E.01287
G1 X108.492 Y143.434 E2.07413
G1 X108.073 Y143.434 E.01287
G1 X108.073 Y75.932 E2.07413
G1 X107.654 Y75.932 E.01287
G1 X107.654 Y143.434 E2.07413
G1 X107.235 Y143.434 E.01287
G1 X107.235 Y75.932 E2.07413
G1 X106.816 Y75.932 E.01287
G1 X106.816 Y143.434 E2.07413
G1 X106.398 Y143.434 E.01287
G1 X106.398 Y75.932 E2.07413
G1 X105.979 Y75.932 E.01287
G1 X105.979 Y143.434 E2.07413
G1 X105.56 Y143.434 E.01287
G1 X105.56 Y75.932 E2.07413
G1 X105.141 Y75.932 E.01287
G1 X105.141 Y143.434 E2.07413
G1 X104.722 Y143.434 E.01287
G1 X104.722 Y75.932 E2.07413
G1 X104.303 Y75.932 E.01287
G1 X104.303 Y143.434 E2.07413
G1 X103.884 Y143.434 E.01287
G1 X103.884 Y75.932 E2.07413
G1 X103.465 Y75.932 E.01287
G1 X103.465 Y143.434 E2.07413
G1 X103.046 Y143.434 E.01287
G1 X103.046 Y75.932 E2.07413
G1 X102.627 Y75.932 E.01287
G1 X102.627 Y143.434 E2.07413
G1 X102.208 Y143.434 E.01287
G1 X102.208 Y75.932 E2.07413
G1 X101.789 Y75.932 E.01287
G1 X101.789 Y143.434 E2.07413
G1 X101.37 Y143.434 E.01287
G1 X101.37 Y75.932 E2.07413
G1 X100.951 Y75.932 E.01287
G1 X100.951 Y143.434 E2.07413
G1 X100.532 Y143.434 E.01287
G1 X100.532 Y75.932 E2.07413
G1 X100.113 Y75.932 E.01287
G1 X100.113 Y143.434 E2.07413
G1 X99.694 Y143.434 E.01287
G1 X99.694 Y75.932 E2.07413
G1 X99.275 Y75.932 E.01287
G1 X99.275 Y143.434 E2.07413
G1 X98.856 Y143.434 E.01287
G1 X98.856 Y75.932 E2.07413
G1 X98.437 Y75.932 E.01287
M73 P7 R60
G1 X98.437 Y143.434 E2.07413
G1 X98.018 Y143.434 E.01287
G1 X98.018 Y75.932 E2.07413
G1 X97.599 Y75.932 E.01287
G1 X97.599 Y143.434 E2.07413
G1 X97.18 Y143.434 E.01287
G1 X97.18 Y75.932 E2.07413
G1 X96.761 Y75.932 E.01287
G1 X96.761 Y143.434 E2.07413
G1 X96.342 Y143.434 E.01287
M73 P7 R59
G1 X96.342 Y75.932 E2.07413
G1 X95.923 Y75.932 E.01287
G1 X95.923 Y143.434 E2.07413
G1 X95.504 Y143.434 E.01287
G1 X95.504 Y75.932 E2.07413
G1 X95.085 Y75.932 E.01287
G1 X95.085 Y143.434 E2.07413
G1 X94.666 Y143.434 E.01287
G1 X94.666 Y75.932 E2.07413
G1 X94.247 Y75.932 E.01287
G1 X94.247 Y143.603 E2.07934
G1 E-.68 F3600
;WIPE_START
G1 F3000
G1 X94.247 Y142.603 E-.12
;WIPE_END
G1 X94.247 Y149.619 Z.6 F21000
G1 Z.2
G1 E.8 F2700
;TYPE:Brim
G1 F3000
G1 X91.124 Y149.619 E.09596
G1 X90.475 Y149.571 E.02001
G1 X89.849 Y149.429 E.01971
G1 X89.015 Y149.075 E.02786
G1 X88.394 Y148.677 E.02267
G1 X87.914 Y148.248 E.01976
G1 X87.502 Y147.753 E.01979
G1 X87.169 Y147.205 E.01971
G1 X86.85 Y146.38 E.02717
G1 X86.718 Y145.75 E.01977
G1 X86.681 Y145.177 E.01765
G1 X86.681 Y74.19 E2.18123
G1 X86.729 Y73.541 E.02001
G1 X86.871 Y72.915 E.01971
G1 X87.225 Y72.081 E.02786
G1 X87.624 Y71.46 E.02267
G1 X88.052 Y70.98 E.01976
G1 X88.547 Y70.568 E.01979
G1 X89.096 Y70.235 E.01971
G1 X89.92 Y69.916 E.02717
G1 X90.55 Y69.784 E.01977
G1 X91.123 Y69.747 E.01765
G1 X160.86 Y69.747 E2.14282
G1 X161.509 Y69.795 E.02001
G1 X161.664 Y69.813 E.00479
G1 X161.8 Y69.784 E.00426
G1 X162.373 Y69.747 E.01765
G1 X171.11 Y69.747 E.26846
G1 X171.759 Y69.795 E.02001
G1 X172.384 Y69.937 E.01968
G1 X173.303 Y70.337 E.03079
G1 X173.84 Y70.689 E.01973
G1 X174.321 Y71.118 E.01979
G1 X174.732 Y71.613 E.01979
G1 X175.065 Y72.162 E.01973
G1 X175.369 Y72.934 E.0255
G1 X175.516 Y73.617 E.02145
G1 X175.554 Y74.189 E.01763
G1 X175.554 Y145.176 E2.18123
G1 X175.505 Y145.825 E.02001
G1 X175.363 Y146.451 E.01971
G1 X175.009 Y147.285 E.02786
G1 X174.611 Y147.906 E.02267
G1 X174.183 Y148.386 E.01976
G1 X173.687 Y148.798 E.01979
G1 X173.139 Y149.131 E.01971
G1 X172.314 Y149.45 E.02717
G1 X171.684 Y149.582 E.01977
G1 X171.111 Y149.619 E.01765
G1 X94.287 Y149.619 E2.36058
G1 X94.287 Y149.242 F21000
G1 F3000
G1 X91.142 Y149.242 E.09663
G1 X90.539 Y149.198 E.01858
G1 X89.956 Y149.065 E.01837
G1 X89.184 Y148.735 E.02582
G1 X88.63 Y148.38 E.02021
G1 X88.192 Y147.991 E.018
G1 X87.805 Y147.527 E.01858
G1 X87.505 Y147.028 E.01787
G1 X87.211 Y146.264 E.02518
G1 X87.095 Y145.707 E.01748
