; HEADER_BLOCK_START
; generated by OrcaSlicer 2.3.0-beta2 on 2025-03-10 at 15:48:58
; total layer number: 125
;_GP_TOTAL_LAYER_NUMBER_PLACEHOLDER
; filament_density: 1.24
; filament_diameter: 1.75
; max_z_height: 25.00
; HEADER_BLOCK_END

; THUMBNAIL_BLOCK_START

;
; THUMBNAIL_BLOCK_END







; external perimeters extrusion width = 0.40mm
; perimeters extrusion width = 0.45mm
; infill extrusion width = 0.45mm
; solid infill extrusion width = 0.45mm
; top infill extrusion width = 0.38mm
; support material extrusion width = 0.38mm
; first layer extrusion width = 0.42mm

; external perimeters extrusion width = 0.40mm
; perimeters extrusion width = 0.45mm
; infill extrusion width = 0.45mm
; solid infill extrusion width = 0.45mm
; top infill extrusion width = 0.38mm
; support material extrusion width = 0.38mm
; first layer extrusion width = 0.42mm

; EXECUTABLE_BLOCK_START
EXCLUDE_OBJECT_DEFINE NAME=keypad_holder_01.stl_id_0_copy_0 CENTER=66.0856,66.439 POLYGON=[[26.0856,30.939],[106.086,30.939],[106.086,101.939],[26.0856,101.939],[26.0856,30.939]]
EXCLUDE_OBJECT_DEFINE NAME=case_bottom_01.stl_id_1_copy_0 CENTER=168.532,68.2653 POLYGON=[[126.532,32.7653],[126.534,32.6781],[126.539,32.6112],[126.54,32.591],[126.549,32.5043],[126.563,32.418],[126.573,32.3674],[126.58,32.3325],[126.601,32.2477],[126.625,32.1639],[126.636,32.1311],[126.653,32.0813],[126.685,32],[126.72,31.9201],[126.726,31.9065],[126.739,31.8808],[126.758,31.8418],[126.779,31.8034],[126.8,31.7653],[126.823,31.7278],[126.846,31.6907],[126.869,31.6542],[126.894,31.6182],[126.919,31.5827],[126.946,31.5478],[126.973,31.5135],[127,31.4798],[127.029,31.4466],[127.058,31.4142],[127.088,31.3823],[127.118,31.3511],[127.149,31.3206],[127.181,31.2908],[127.214,31.2617],[127.247,31.2332],[127.281,31.2056],[127.315,31.1786],[127.35,31.1524],[127.374,31.135],[127.385,31.127],[127.421,31.1024],[127.458,31.0786],[127.495,31.0555],[127.532,31.0333],[127.539,31.0294],[127.57,31.0119],[127.609,30.9913],[127.648,30.9716],[127.687,30.9527],[127.727,30.9347],[127.767,30.9176],[127.807,30.9013],[127.848,30.886],[127.889,30.8715],[127.931,30.8579],[127.973,30.8452],[127.998,30.8381],[128.015,30.8335],[128.057,30.8227],[128.099,30.8127],[128.142,30.8038],[128.185,30.7957],[128.228,30.7886],[128.271,30.7824],[128.315,30.7772],[128.358,30.7729],[128.402,30.7696],[128.445,30.7672],[128.489,30.7658],[128.532,30.7653],[208.532,30.7653],[208.62,30.7672],[208.686,30.7715],[208.707,30.7729],[208.793,30.7824],[208.88,30.7957],[208.93,30.8055],[208.965,30.8127],[209.05,30.8335],[209.134,30.8579],[209.167,30.8687],[209.216,30.886],[209.298,30.9176],[209.378,30.9527],[209.391,30.9591],[209.417,30.9716],[209.456,30.9913],[209.494,31.0119],[209.532,31.0333],[209.57,31.0555],[209.607,31.0786],[209.644,31.1024],[209.68,31.127],[209.715,31.1524],[209.75,31.1786],[209.784,31.2056],[209.818,31.2332],[209.851,31.2617],[209.884,31.2908],[209.915,31.3206],[209.947,31.3511],[209.977,31.3823],[210.007,31.4142],[210.036,31.4466],[210.064,31.4798],[210.092,31.5135],[210.119,31.5478],[210.145,31.5827],[210.163,31.6069],[210.171,31.6182],[210.195,31.6542],[210.219,31.6907],[210.242,31.7278],[210.264,31.7653],[210.268,31.7722],[210.286,31.8034],[210.306,31.8418],[210.326,31.8808],[210.345,31.9201],[210.363,31.9598],[210.38,32],[210.396,32.0405],[210.412,32.0813],[210.426,32.1225],[210.44,32.1639],[210.452,32.2057],[210.46,32.2309],[210.464,32.2477],[210.475,32.29],[210.485,32.3325],[210.494,32.3752],[210.502,32.418],[210.509,32.4611],[210.515,32.5043],[210.52,32.5476],[210.525,32.591],[210.528,32.6345],[210.53,32.6781],[210.532,32.7217],[210.532,32.7653],[210.532,103.765],[210.53,103.853],[210.526,103.919],[210.525,103.94],[210.515,104.026],[210.502,104.113],[210.492,104.163],[210.485,104.198],[210.464,104.283],[210.44,104.367],[210.429,104.4],[210.412,104.449],[210.38,104.531],[210.345,104.611],[210.339,104.624],[210.326,104.65],[210.306,104.689],[210.286,104.727],[210.264,104.765],[210.242,104.803],[210.219,104.84],[210.195,104.876],[210.171,104.912],[210.145,104.948],[210.119,104.983],[210.092,105.017],[210.064,105.051],[210.036,105.084],[210.007,105.117],[209.977,105.148],[209.947,105.18],[209.915,105.21],[209.884,105.24],[209.851,105.269],[209.818,105.297],[209.784,105.325],[209.75,105.352],[209.715,105.378],[209.691,105.396],[209.68,105.404],[209.644,105.428],[209.607,105.452],[209.57,105.475],[209.532,105.497],[209.526,105.501],[209.494,105.519],[209.456,105.539],[209.417,105.559],[209.378,105.578],[209.338,105.596],[209.298,105.613],[209.257,105.629],[209.216,105.645],[209.175,105.659],[209.134,105.673],[209.092,105.685],[209.067,105.693],[209.05,105.697],[209.008,105.708],[208.965,105.718],[208.923,105.727],[208.88,105.735],[208.837,105.742],[208.793,105.748],[208.75,105.753],[208.707,105.758],[208.663,105.761],[208.62,105.763],[208.576,105.765],[208.532,105.765],[128.532,105.765],[128.489,105.765],[128.445,105.763],[128.402,105.761],[128.358,105.758],[128.315,105.753],[128.271,105.748],[128.228,105.742],[128.185,105.735],[128.142,105.727],[128.099,105.718],[128.057,105.708],[128.015,105.697],[127.998,105.693],[127.973,105.685],[127.931,105.673],[127.889,105.659],[127.848,105.645],[127.807,105.629],[127.767,105.613],[127.727,105.596],[127.687,105.578],[127.648,105.559],[127.609,105.539],[127.57,105.519],[127.539,105.501],[127.532,105.497],[127.495,105.475],[127.458,105.452],[127.421,105.428],[127.385,105.404],[127.35,105.378],[127.315,105.352],[127.281,105.325],[127.247,105.297],[127.214,105.269],[127.181,105.24],[127.149,105.21],[127.118,105.18],[127.088,105.148],[127.058,105.117],[127.029,105.084],[127,105.051],[126.973,105.017],[126.946,104.983],[126.919,104.948],[126.894,104.912],[126.869,104.876],[126.846,104.84],[126.823,104.803],[126.8,104.765],[126.779,104.727],[126.758,104.689],[126.739,104.65],[126.726,104.624],[126.72,104.611],[126.685,104.531],[126.653,104.449],[126.636,104.4],[126.625,104.367],[126.601,104.283],[126.58,104.198],[126.573,104.163],[126.563,104.113],[126.549,104.026],[126.54,103.94],[126.539,103.919],[126.534,103.853],[126.532,103.765],[126.532,32.7653]]
M73 P0 R81
;TYPE:Custom
;ELEGOO NEPTUNE 4 PRO
M220 S100 ;Set the feed speed to 100%
M221 S100 ;Set the flow rate to 100%
M104 S140
M190 S55
G90
G28 ;home
G1 Z10 F300
G1 X67.5 Y0 F6000
G1 Z0 F300
M109 S220
G92 E0 ;Reset Extruder
G1 X67.5 Y0 Z0.4 F300 ;Move to start position
G1 X167.5 E30 F400 ;Draw the first line
G1 Z0.6 F120.0 ;Move to side a little
M73 P0 R80
G1 X162.5 F3000
G92 E0 ;Reset Extruder
G90
G21
M83 ; use relative distances for extrusion
; Filament gcode
M106 S0
;LAYER_CHANGE
;Z:0.2
;HEIGHT:0.2
;BEFORE_LAYER_CHANGE
G92 E0
;0.2


G1 E-.8 F3600
;AFTER_LAYER_CHANGE
;0.2
;_SET_FAN_SPEED_CHANGING_LAYER
SET_VELOCITY_LIMIT ACCEL=1000 ACCEL_TO_DECEL=500
SET_VELOCITY_LIMIT SQUARE_CORNER_VELOCITY=7
G1 X46.803 Y29.75 F21000
G1 Z.6
G1 Z.2
G1 E.8 F2700
;TYPE:Skirt
;WIDTH:0.42
G1 F3000
G1 X106.095 Y29.75 E1.82187
G1 X208.608 Y30.526 E3.15004
G1 X209.194 Y30.624 E.01826
G1 X209.796 Y30.915 E.02054
G1 X210.203 Y31.274 E.01668
G1 X210.511 Y31.714 E.01651
G1 X210.719 Y32.281 E.01856
G1 X210.774 Y32.765 E.01497
G1 X210.774 Y103.765 E2.18163
G1 X210.635 Y104.541 E.02421
G1 X210.309 Y105.131 E.02071
G1 X209.895 Y105.544 E.01799
G1 X209.483 Y105.795 E.01479
G1 X209.016 Y105.952 E.01514
G1 X208.532 Y106.007 E.01497
G1 X128.532 Y106.007 E2.45818
G1 X26.052 Y103.127 E3.15017
G1 X25.189 Y102.719 E.02933
G1 X24.897 Y101.939 E.02561
G1 X24.897 Y30.939 E2.18163
G1 X25.28 Y30.065 E.02933
G1 X26.086 Y29.75 E.02657
G1 X46.763 Y29.75 E.63535
; printing object keypad_holder_01.stl id:0 copy 0
G1 E-.68 F3600
;WIPE_START
G1 F3000
G1 X47.763 Y29.75 E-.12
;WIPE_END
EXCLUDE_OBJECT_START NAME=keypad_holder_01.stl_id_0_copy_0
G1 X52.549 Y35.696 Z.6 F21000
G1 X105.021 Y100.875 Z.6
G1 Z.2
G1 E.8 F2700
;TYPE:Inner wall
;WIDTH:0.419999
G1 F3000
G1 X27.15 Y100.875 E2.39278
G1 X27.15 Y32.003 E2.11623
G1 X42.361 Y31.998 E.46739
;WIDTH:0.409884
G1 X42.862 Y31.975 E.01501
;WIDTH:0.389678
G1 X43.419 Y31.988 E.01574
;WIDTH:0.419999
G1 X44.044 Y32.003 E.01923
G1 X105.021 Y32.003 E1.87365
G1 X105.021 Y100.835 E2.115
G1 X105.399 Y101.252 F21000
G1 F3000
G1 X26.773 Y101.252 E2.41595
G1 X26.773 Y31.626 E2.1394
G1 X105.399 Y31.626 E2.41595
G1 X105.399 Y101.212 E2.13818
G1 X105.776 Y101.629 F21000
;TYPE:Outer wall
G1 F3000
G1 X26.396 Y101.629 E2.43912
G1 X26.396 Y31.249 E2.16258
G1 X105.776 Y31.249 E2.43912
G1 X105.776 Y101.589 E2.16135
M73 P1 R80
G1 E-.68 F3600
;WIPE_START
G1 F3000
G1 X104.776 Y101.59 E-.12
;WIPE_END
G1 X103.133 Y94.136 Z.6 F21000
G1 X97.201 Y67.226 Z.6
G1 Z.2
G1 E.8 F2700
;TYPE:Inner wall
G1 F3000
G1 X97.23 Y67.592 E.01127
G1 X97.191 Y67.922 E.0102
G1 X97.01 Y68.481 E.01805
G1 X96.658 Y68.992 E.01909
G1 X96.346 Y69.272 E.01288
G1 X95.928 Y69.519 E.0149
G1 X95.416 Y69.67 E.01641
G1 X95.142 Y69.707 E.0085
G1 X94.618 Y69.671 E.01614
G1 X94.126 Y69.515 E.01584
G1 X93.654 Y69.233 E.01693
G1 X93.289 Y68.867 E.01585
G1 X93.02 Y68.437 E.01562
G1 X92.849 Y67.855 E.01864
G1 X92.816 Y67.581 E.00845
G1 X92.87 Y67.016 E.01746
G1 X92.967 Y66.693 E.01034
G1 X93.213 Y66.234 E.016
G1 X93.56 Y65.847 E.01599
G1 X93.807 Y65.66 E.0095
G1 X94.268 Y65.421 E.01598
G1 X94.777 Y65.301 E.01605
G1 X95.329 Y65.307 E.01697
G1 X95.846 Y65.451 E.01649
G1 X96.097 Y65.565 E.00847
G1 X96.516 Y65.866 E.01586
G1 X96.841 Y66.235 E.0151
G1 X97.045 Y66.6 E.01284
G1 X97.185 Y67.007 E.01324
G1 X97.198 Y67.186 E.00551
G1 X96.831 Y67.27 F21000
G1 F3000
G1 X96.85 Y67.715 E.01367
G1 X96.7 Y68.24 E.0168
G1 X96.466 Y68.635 E.01408
G1 X96.141 Y68.955 E.01403
G1 X95.742 Y69.184 E.01413
G1 X95.225 Y69.325 E.01647
G1 X94.714 Y69.307 E.01572
G1 X94.224 Y69.15 E.01582
G1 X93.798 Y68.865 E.01574
G1 X93.501 Y68.521 E.01396
G1 X93.329 Y68.188 E.01152
G1 X93.2 Y67.698 E.01558
G1 X93.236 Y67.103 E.01832
G1 X93.308 Y66.854 E.00796
G1 X93.526 Y66.449 E.01414
G1 X93.867 Y66.075 E.01555
G1 X94.378 Y65.786 E.01805
G1 X94.895 Y65.666 E.01629
G1 X95.312 Y65.69 E.01284
G1 X95.842 Y65.853 E.01702
G1 X96.244 Y66.127 E.01495
G1 X96.521 Y66.434 E.01272
G1 X96.691 Y66.73 E.01048
G1 X96.827 Y67.168 E.01408
G1 X96.829 Y67.23 E.00193
G1 X96.454 Y67.287 F21000
;TYPE:Outer wall
G1 F3000
G1 X96.469 Y67.703 E.01278
G1 X96.316 Y68.181 E.01542
G1 X96.128 Y68.456 E.01022
G1 X95.937 Y68.638 E.00813
G1 X95.638 Y68.822 E.01077
G1 X95.153 Y68.953 E.01544
G1 X94.801 Y68.939 E.01082
G1 X94.325 Y68.779 E.01544
G1 X94.048 Y68.582 E.01045
G1 X93.826 Y68.331 E.01028
G1 X93.693 Y68.09 E.00846
G1 X93.57 Y67.604 E.01542
G1 X93.603 Y67.19 E.01273
G1 X93.79 Y66.721 E.01553
G1 X94.128 Y66.348 E.01547
G1 X94.574 Y66.111 E.01552
G1 X94.935 Y66.042 E.01129
G1 X95.208 Y66.053 E.0084
G1 X95.688 Y66.199 E.01543
G1 X95.971 Y66.388 E.01045
G1 X96.201 Y66.634 E.01034
G1 X96.337 Y66.86 E.00812
G1 X96.45 Y67.19 E.01072
G1 X96.452 Y67.247 E.00176
G1 E-.68 F3600
;WIPE_START
G1 F3000
G1 X96.469 Y67.703 E-.05469
G1 X96.316 Y68.181 E-.06024
G1 X96.292 Y68.216 E-.00507
;WIPE_END
G1 X96.452 Y60.585 Z.6 F21000
G1 X96.918 Y38.432 Z.6
G1 Z.2
G1 E.8 F2700
;TYPE:Inner wall
G1 F3000
G1 X97.045 Y38.66 E.00802
G1 X97.194 Y39.122 E.01494
G1 X97.231 Y39.593 E.01452
G1 X97.171 Y40.092 E.01542
G1 X96.988 Y40.577 E.01593
G1 X96.842 Y40.811 E.00847
G1 X96.453 Y41.252 E.01809
G1 X96.012 Y41.541 E.0162
G1 X95.414 Y41.73 E.01928
G1 X95.14 Y41.767 E.00848
G1 X94.617 Y41.731 E.0161
G1 X94.11 Y41.57 E.01636
G1 X93.654 Y41.293 E.01639
G1 X93.289 Y40.927 E.01586
G1 X93.021 Y40.499 E.01554
G1 X92.849 Y39.915 E.01872
G1 X92.816 Y39.641 E.00845
G1 X92.85 Y39.156 E.01494
G1 X92.967 Y38.753 E.01288
G1 X93.192 Y38.321 E.015
G1 X93.46 Y37.998 E.01289
G1 X93.843 Y37.689 E.01509
G1 X94.27 Y37.487 E.01452
G1 X94.77 Y37.362 E.01583
G1 X95.17 Y37.351 E.0123
G1 X95.651 Y37.439 E.01503
G1 X96.298 Y37.757 E.02216
G1 X96.516 Y37.927 E.0085
G1 X96.841 Y38.295 E.01509
G1 X96.898 Y38.397 E.00359
G1 X96.588 Y38.61 F21000
G1 F3000
G1 X96.691 Y38.79 E.00637
G1 X96.821 Y39.178 E.01258
G1 X96.857 Y39.549 E.01146
G1 X96.788 Y40.077 E.01637
G1 X96.555 Y40.566 E.01665
G1 X96.206 Y40.967 E.01634
G1 X95.742 Y41.244 E.01659
G1 X95.223 Y41.386 E.01651
G1 X94.714 Y41.367 E.01567
G1 X94.218 Y41.207 E.01601
G1 X93.799 Y40.927 E.01548
G1 X93.569 Y40.675 E.01048
G1 X93.339 Y40.282 E.01398
G1 X93.204 Y39.781 E.01595
G1 X93.217 Y39.244 E.01651
G1 X93.308 Y38.914 E.0105
G1 X93.494 Y38.547 E.01263
G1 X93.709 Y38.281 E.01051
G1 X94.028 Y38.018 E.01271
G1 X94.363 Y37.852 E.01148
G1 X94.932 Y37.725 E.01794
G1 X95.28 Y37.742 E.01069
G1 X95.723 Y37.866 E.01413
G1 X96.184 Y38.133 E.01637
G1 X96.521 Y38.494 E.01519
G1 X96.568 Y38.575 E.00288
G1 X96.263 Y38.796 F21000
;TYPE:Outer wall
G1 F3000
G1 X96.337 Y38.92 E.00445
G1 X96.448 Y39.233 E.01022
G1 X96.482 Y39.505 E.00841
G1 X96.415 Y40.004 E.01548
G1 X96.268 Y40.322 E.01077
G1 X95.937 Y40.698 E.01539
G1 X95.638 Y40.882 E.01077
G1 X95.151 Y41.013 E.01549
G1 X94.801 Y40.999 E.01077
G1 X94.326 Y40.84 E.01539
G1 X94.048 Y40.642 E.0105
G1 X93.849 Y40.422 E.0091
G1 X93.693 Y40.15 E.00963
G1 X93.57 Y39.664 E.01542
G1 X93.584 Y39.331 E.01022
G1 X93.649 Y39.075 E.00813
G1 X93.795 Y38.774 E.01027
G1 X93.957 Y38.565 E.00813
G1 X94.213 Y38.347 E.01033
G1 X94.455 Y38.218 E.00844
G1 X94.935 Y38.102 E.01516
G1 X95.198 Y38.11 E.00807
G1 X95.538 Y38.194 E.01077
G1 X95.972 Y38.448 E.01544
G1 X96.201 Y38.694 E.01033
G1 X96.242 Y38.762 E.00244
G1 E-.68 F3600
;WIPE_START
G1 F3000
G1 X96.337 Y38.92 E-.02218
G1 X96.448 Y39.233 E-.03993
G1 X96.482 Y39.505 E-.03283
G1 X96.454 Y39.712 E-.02507
;WIPE_END
G1 X88.859 Y38.957 Z.6 F21000
G1 X40.771 Y34.176 Z.6
G1 Z.2
G1 E.8 F2700
;TYPE:Inner wall
G1 F3000
G1 X40.804 Y33.994 E.00568
G1 X40.945 Y33.571 E.01371
G1 X41.104 Y33.281 E.01016
G1 X41.586 Y32.744 E.02216
G1 X42 Y32.484 E.01504
G1 X42.394 Y32.346 E.01282
;WIDTH:0.409884
G1 X42.956 Y32.299 E.01687
;WIDTH:0.414744
G1 X43.669 Y32.389 E.02177
;WIDTH:0.419999
G1 X44.18 Y32.644 E.01755
G1 X44.523 Y32.927 E.01366
G1 X44.738 Y33.179 E.01017
G1 X44.964 Y33.567 E.0138
G1 X45.136 Y34.111 E.01754
G1 X45.161 Y34.628 E.0159
G1 X45.095 Y35.042 E.01289
G1 X44.87 Y35.593 E.01828
G1 X44.484 Y36.07 E.01887
G1 X44.228 Y36.281 E.01018
G1 X43.768 Y36.536 E.01615
G1 X43.258 Y36.671 E.01621
G1 X42.572 Y36.651 E.0211
G1 X42.303 Y36.591 E.00847
G1 X41.852 Y36.396 E.01509
G1 X41.512 Y36.153 E.01285
G1 X41.147 Y35.747 E.01678
G1 X40.87 Y35.221 E.01826
G1 X40.766 Y34.783 E.01383
G1 X40.755 Y34.266 E.01591
G1 X40.764 Y34.215 E.00157
G1 X41.155 Y34.198 F21000
G1 F3000
G1 X41.303 Y33.691 E.01623
G1 X41.678 Y33.167 E.01978
G1 X42.043 Y32.887 E.01414
G1 X42.464 Y32.711 E.01403
G1 X42.92 Y32.648 E.01414
G1 X43.524 Y32.735 E.01876
G1 X43.94 Y32.935 E.01418
G1 X44.412 Y33.369 E.0197
G1 X44.7 Y33.91 E.01884
G1 X44.784 Y34.33 E.01315
G1 X44.772 Y34.744 E.01272
G1 X44.691 Y35.075 E.01048
G1 X44.486 Y35.485 E.01409
G1 X44.154 Y35.87 E.01561
G1 X43.653 Y36.172 E.01799
G1 X43.168 Y36.304 E.01543
G1 X42.6 Y36.275 E.01749
G1 X42.092 Y36.1 E.01651
G1 X41.777 Y35.885 E.01173
G1 X41.467 Y35.545 E.01414
G1 X41.222 Y35.086 E.01599
G1 X41.135 Y34.706 E.01196
G1 X41.132 Y34.277 E.0132
G1 X41.144 Y34.236 E.0013
G1 X41.516 Y34.316 F21000
;TYPE:Outer wall
G1 F3000
G1 X41.519 Y34.233 E.00253
G1 X41.692 Y33.752 E.01571
G1 X42.012 Y33.366 E.01543
G1 X42.29 Y33.18 E.01028
G1 X42.536 Y33.082 E.00812
G1 X42.881 Y33.023 E.01077
G1 X43.379 Y33.083 E.01539
G1 X43.7 Y33.226 E.01082
G1 X44.086 Y33.559 E.01567
G1 X44.333 Y33.998 E.01548
G1 X44.407 Y34.33 E.01045
G1 X44.403 Y34.666 E.01034
G1 X44.345 Y34.924 E.00812
G1 X44.198 Y35.241 E.01072
G1 X43.868 Y35.618 E.01541
G1 X43.427 Y35.861 E.01547
G1 X43.073 Y35.932 E.01111
G1 X42.574 Y35.887 E.01539
G1 X42.261 Y35.763 E.01033
G1 X42.042 Y35.616 E.00812
G1 X41.798 Y35.364 E.01077
G1 X41.565 Y34.921 E.01539
G1 X41.504 Y34.629 E.00915
G1 X41.514 Y34.356 E.00842
G1 E-.68 F3600
;WIPE_START
G1 F3000
G1 X41.519 Y34.233 E-.01467
G1 X41.692 Y33.752 E-.06135
G1 X41.926 Y33.47 E-.04398
;WIPE_END
G1 X42.61 Y41.072 Z.6 F21000
G1 X46.392 Y83.096 Z.6
G1 Z.2
G1 E.8 F2700
;TYPE:Inner wall
G1 F3000
